src/img/projects/go.svg

<?xml version="1.0" encoding="UTF-8"?>
<svg width="90px" height="90px" viewBox="0 0 90 90" version="1.1" xmlns="http://www.w3.org/2000/svg" xmlns:xlink="http://www.w3.org/1999/xlink">
    <!-- Generator: Sketch 41.2 (35397) - http://www.bohemiancoding.com/sketch -->
    <title>community/card/logo/go</title>
    <desc>Created with Sketch.</desc>
    <defs></defs>
    <g id="Symbols" stroke="none" stroke-width="1" fill="none" fill-rule="evenodd">
        <g id="community/card/logo/go">
            <path d="M65.619403,23.7482625 C64.119403,20.6803089 60.4925373,23.3899614 59.5746269,22.427027 C54.8731343,17.5899614 49.1865672,16.380695 44.7313433,16.1567568 L42.2686567,16.1567568 C37.7910448,16.2687259 32.1044776,17.5675676 27.4253731,22.427027 C26.5074627,23.3899614 22.858209,20.6803089 21.380597,23.7482625 C19.6567164,27.3312741 24.8955224,27.6895753 24.6268657,29.2795367 C24.1119403,32.1459459 24.4477612,36.4007722 24.8507463,40.588417 C25.4776119,47.6872587 20.1716418,64.6841699 31.2089552,71.5142857 C33.2910448,72.8131274 38.9104478,73.5297297 43.7910448,73.6416988 L43.7910448,73.6416988 L43.8134328,73.6416988 L43.8358209,73.6416988 L43.8358209,73.6416988 C48.7164179,73.5297297 53.6641791,72.8131274 55.7462687,71.5142857 C66.8059701,64.6841699 61.5,47.6872587 62.1492537,40.588417 C62.5298507,36.4007722 62.8656716,32.1459459 62.3731343,29.2795367 C62.1044776,27.6895753 67.3432836,27.3088803 65.619403,23.7482625 Z" id="Shape" fill="#01ADFF"></path>
            <path d="M51.2686567,25.9204633 C43.7910448,26.7938224 44.7985075,34.5868726 47.6865672,37.1173745 C53.0597015,41.8200772 58.6567164,37.1173745 58.0298507,32.3698842 C57.4701493,27.8015444 53.5970149,25.6517375 51.2686567,25.9204633 Z" id="Shape" fill="#FFFFFF"></path>
            <ellipse id="Oval" fill="#111212" cx="51.7835821" cy="32.63861" rx="2.55223881" ry="2.55289575"></ellipse>
            <ellipse id="Oval" fill="#FFFFFF" cx="51.1119403" cy="31.5413127" rx="0.805970149" ry="0.806177606"></ellipse>
            <path d="M43.5,37.7220077 C39.9179104,38.2594595 38.641791,39.2895753 38.9104478,40.9019305 C39.358209,43.5444015 47.7985075,43.2532819 48.0671642,41.0362934 C48.2910448,39.1328185 44.9104478,37.5204633 43.5,37.7220077 Z" id="Shape" fill="#B8937F"></path>
            <path d="M41.1940299,38.7969112 C40.5895522,40.9915058 46.0522388,40.6555985 45.9179104,39.2447876 C45.8507463,38.4162162 45.1119403,37.3637066 43.1641791,37.4084942 C42.4029851,37.430888 41.4626866,37.7667954 41.1940299,38.7969112 Z" id="Shape" fill="#000000"></path>
            <path d="M41.3731343,42.357529 C41.1716418,42.4471042 40.8358209,44.6416988 41.8656716,44.753668 C42.5597015,44.8208494 44.4626866,45.0447876 44.9104478,44.753668 C45.7835821,44.1938224 45.6940299,42.8501931 45.2014925,42.5142857 C44.3731343,41.976834 41.5970149,42.2455598 41.3731343,42.357529 Z" id="Shape" fill="#FFFFFF"></path>
            <path d="M35.6865672,25.9204633 C43.1641791,26.7938224 42.1567164,34.5868726 39.2686567,37.1173745 C33.8955224,41.8200772 28.2985075,37.1173745 28.9253731,32.3698842 C29.5074627,27.8015444 33.380597,25.6517375 35.6865672,25.9204633 Z" id="Shape" fill="#FFFFFF"></path>
            <ellipse id="Oval" fill="#111212" cx="35.1940299" cy="32.63861" rx="2.55223881" ry="2.55289575"></ellipse>
            <ellipse id="Oval" fill="#FFFFFF" cx="35.8656716" cy="31.5413127" rx="0.805970149" ry="0.806177606"></ellipse>
            <path d="M62.5522388,55.5698842 C65.0149254,55.592278 63.8059701,50.3073359 62.2835821,51.3598456 C61.5447761,51.8749035 61.4104478,53.0617761 61.4104478,54.0694981 C61.4104478,54.6293436 61.858209,55.5474903 62.5522388,55.5698842 Z" id="Shape" fill="#B8937F"></path>
            <path d="M24.4253731,55.5698842 C21.9626866,55.592278 23.1716418,50.3073359 24.6940299,51.3598456 C25.4328358,51.8749035 25.5671642,53.0617761 25.5671642,54.0694981 C25.5671642,54.6293436 25.119403,55.5474903 24.4253731,55.5698842 Z" id="Shape" fill="#B8937F"></path>
            <path d="M57.8731343,71.8054054 C56.5298507,69.8123552 55.3208955,71.357529 53.3731343,72.3428571 C52.4552239,72.8131274 54.8955224,74.4926641 57.6268657,73.23861 C58.3432836,72.9027027 58.3208955,72.4548263 57.8731343,71.8054054 Z" id="Shape" fill="#B8937F"></path>
            <path d="M29.1044776,72.0293436 C30.4477612,70.0362934 31.6567164,71.5814672 33.6044776,72.5667954 C34.5223881,73.0370656 32.0820896,74.7166023 29.3507463,73.4625483 C28.6343284,73.1266409 28.6567164,72.6787645 29.1044776,72.0293436 Z" id="Shape" fill="#B8937F"></path>
            <path d="M61.4328358,24.2857143 C61.2985075,24.7559846 61.9029851,24.6888031 62.1268657,26.1444015 C62.2164179,26.6818533 64.141791,25.3606178 63.358209,24.3976834 C62.7089552,23.5915058 61.5447761,23.815444 61.4328358,24.2857143 Z" id="Shape" fill="#3C89BF"></path>
            <path d="M25.5447761,24.2857143 C25.6791045,24.7559846 25.0746269,24.6888031 24.8507463,26.1444015 C24.761194,26.6818533 22.8358209,25.3606178 23.619403,24.3976834 C24.2462687,23.5915058 25.4104478,23.815444 25.5447761,24.2857143 Z" id="Shape" fill="#3C89BF"></path>
        </g>
    </g>
</svg>

<svg width="90" height="90" viewBox="0 0 90 90" xmlns="http://www.w3.org/2000/svg"><title>community/card/logo/go</title><g fill="none" fill-rule="evenodd"><path d="M65.62 23.748c-1.5-3.068-5.127-.358-6.045-1.321-4.702-4.837-10.388-6.046-14.844-6.27H42.27c-4.478.112-10.165 1.41-14.844 6.27-.918.963-4.567-1.747-6.044 1.321-1.724 3.583 3.515 3.942 3.246 5.532-.515 2.866-.18 7.12.224 11.308.627 7.1-4.68 24.096 6.358 30.926 2.082 1.3 7.701 2.016 12.582 2.128h.045c4.88-.112 9.828-.829 11.91-2.128 11.06-6.83 5.754-23.827 6.403-30.926.38-4.187.717-8.442.224-11.308-.269-1.59 4.97-1.971 3.246-5.532z" fill="#01ADFF"/><path d="M51.269 25.92c-7.478.874-6.47 8.667-3.582 11.197 5.373 4.703 10.97 0 10.343-4.747-.56-4.568-4.433-6.718-6.761-6.45z" fill="#FFF"/><ellipse fill="#111212" cx="51.784" cy="32.639" rx="2.552" ry="2.553"/><ellipse fill="#FFF" cx="51.112" cy="31.541" rx=".806" ry=".806"/><path d="M43.5 37.722c-3.582.537-4.858 1.568-4.59 3.18.448 2.642 8.889 2.351 9.157.134.224-1.903-3.157-3.516-4.567-3.314z" fill="#B8937F"/><path d="M41.194 38.797c-.604 2.195 4.858 1.859 4.724.448-.067-.829-.806-1.881-2.754-1.837-.761.023-1.701.359-1.97 1.389z" fill="#000"/><path d="M41.373 42.358c-.201.09-.537 2.284.493 2.396.694.067 2.597.29 3.044 0 .874-.56.784-1.904.291-2.24-.828-.537-3.604-.268-3.828-.156zM35.687 25.92c7.477.874 6.47 8.667 3.582 11.197-5.373 4.703-10.97 0-10.344-4.747.582-4.568 4.456-6.718 6.762-6.45z" fill="#FFF"/><ellipse fill="#111212" cx="35.194" cy="32.639" rx="2.552" ry="2.553"/><ellipse fill="#FFF" cx="35.866" cy="31.541" rx=".806" ry=".806"/><path d="M62.552 55.57c2.463.022 1.254-5.263-.268-4.21-.74.515-.874 1.702-.874 2.71 0 .56.448 1.477 1.142 1.5zM24.425 55.57c-2.462.022-1.253-5.263.269-4.21.739.515.873 1.702.873 2.71 0 .56-.448 1.477-1.142 1.5zM57.873 71.805c-1.343-1.993-2.552-.447-4.5.538-.918.47 1.523 2.15 4.254.896.716-.336.694-.784.246-1.434zM29.104 72.03c1.344-1.994 2.553-.449 4.5.537.918.47-1.522 2.15-4.253.896-.717-.336-.694-.784-.247-1.434z" fill="#B8937F"/><path d="M61.433 24.286c-.134.47.47.403.694 1.858.09.538 2.015-.783 1.231-1.746-.649-.806-1.813-.583-1.925-.112zM25.545 24.286c.134.47-.47.403-.694 1.858-.09.538-2.015-.783-1.232-1.746.627-.806 1.791-.583 1.926-.112z" fill="#3C89BF"/></g></svg>
